X: 18561
T: I Long For Thy Virginity
R: reel
M: 4/4
K: Cmajor
C2 F3 G A2|F2 cA GF D2|F3 G A2 d2|c2 A2 cA GF:|
GF GA d2 A2|c2 A2 cA GF|GF GA d2 A2|cA GF D4|
fe de (3:2:1f(3:2:1e(3:2:1d e2|GF GA d2 A2|cA GF D4:|

